X: 1
T: John McGinley's
M: 4/4
L: 1/8
R: reel
K: Ador
EAA(B cG)AG|EAA(G EG)EC|EAA(B cA)Bc|1 d/d/(d g)(e dc)AG:|2 d/d/(d g)(e dc)A(a||
gc)e(c Gc)ea|gce(g ag)ea|gce(c Ac)GE|GAc(d &quot;4&quot;ed)de|
gce(c Gc)ea|gce(g ag)ed|c/c/(c g)(c Gc)gc|e(dc&quot;4&quot;e) dcAG||
